.local/share/icons/Gruvbox-Plus-Dark/actions/16/draw-ellipse-chord.svg

<svg width="16" height="16" version="1.1" xmlns="http://www.w3.org/2000/svg">
  <defs>
    <style id="current-color-scheme" type="text/css">.ColorScheme-Text { color:#ebdbb2; } .ColorScheme-Highlight { color:#458588; }</style>
  </defs>
  <path class="ColorScheme-Text" d="m15 8a7 7 0 0 1-4.606 6.578 7 7 0 0 1-7.756-2.078 7 7 0 0 1-0.6998-8" fill="currentColor" opacity=".3"/>
  <path class="ColorScheme-Text" d="m1.938 4.5c-0.6113 1.059-0.9349 2.277-0.9379 3.5 0 3.866 3.134 7 7 7s7-3.134 7-7zm0.5406 1.162 11.47 3.074c-0.371 3.004-2.922 5.261-5.949 5.264-3.314 0-6-2.686-6-6 0.0014-0.8035 0.1641-1.598 0.4785-2.338z" fill="currentColor"/>
</svg>

<svg xmlns="http://www.w3.org/2000/svg" width="16" height="16" version="1.1">
 <defs>
  <style id="current-color-scheme" type="text/css">
   .ColorScheme-Text { color:#565656; } .ColorScheme-Highlight { color:#4285f4; }
  </style>
 </defs>
 <path style="fill:currentColor;opacity:0.3" class="ColorScheme-Text" d="M 15,8 A 7,7 0 0 1 10.394,14.578 7,7 0 0 1 2.6377,12.5 7,7 0 0 1 1.9379,4.5"/>
 <path style="fill:currentColor" class="ColorScheme-Text" d="M 1.9379,4.5 C 1.3266,5.559 1.003,6.7772 1,8 1,11.866 4.134,15 8,15 11.866,15 15,11.866 15,8 Z M 2.4785,5.6621 13.949,8.7363 C 13.578,11.74 11.027,13.997 8,14 4.6863,14 2,11.314 2,8 2.0014,7.1965 2.1641,6.4015 2.4785,5.6621 Z"/>
</svg>
